X: 17
T: Hese de xiongying
L: 1/8
M: 2/4
K: C
c> d dd2c/ d/ [I:setbarnb 1]| 
e ae4 | 
e a e d | 
c2>d2 d (3e/ g/ e/ | 
[M:3/4]d6 | 
[M:4/4]d c A GA4 | 
A> d cd2d/ g/ d c | 
[M:3/4]AA2d A G | 
E6 | 
E2>G2 A c | 
d4d c | 
C C/ D/ EG3 | 
A ED4 |]

@@@ Tune index: 8685
